Newaita-dark/.LP/22/weather-storm.svg

<svg xmlns="http://www.w3.org/2000/svg" xmlns:xlink="http://www.w3.org/1999/xlink" width="22px" height="22px" viewBox="0 0 22 22" version="1.1">
<defs>
<linearGradient id="linear0" gradientUnits="userSpaceOnUse" x1="232.832993" y1="222.917007" x2="232.832993" y2="48.292" >
<stop offset="0" style="stop-color:rgb(100%,79.215688%,15.686275%);stop-opacity:1;"/>
<stop offset="1" style="stop-color:rgb(100%,83.529413%,30.980393%);stop-opacity:1;"/>
</linearGradient>
<linearGradient id="linear1" gradientUnits="userSpaceOnUse" x1="960" y1="1695.118042" x2="960" y2="815.117981" gradientTransform="matrix(0.0113713,0,0,0.0113713,0,-7.173375)">
<stop offset="0" style="stop-color:rgb(47.058824%,56.470591%,61.176473%);stop-opacity:1;"/>
<stop offset="1" style="stop-color:rgb(56.470591%,64.313728%,68.235296%);stop-opacity:1;"/>
</linearGradient>
<radialGradient id="radial0" gradientUnits="userSpaceOnUse" cx="450.908997" cy="189.578995" fx="450.908997" fy="189.578995" r="21.167" gradientTransform="matrix(0,-0.0537212,-0.09669,0,28.107749,43.267124)">
<stop offset="0" style="stop-color:rgb(0%,0%,0%);stop-opacity:0.314;"/>
<stop offset="0.222" style="stop-color:rgb(0%,0%,0%);stop-opacity:0.275;"/>
<stop offset="1" style="stop-color:rgb(0%,0%,0%);stop-opacity:0;"/>
</radialGradient>
<radialGradient id="radial1" gradientUnits="userSpaceOnUse" cx="450.908997" cy="189.578995" fx="450.908997" fy="189.578995" r="21.167" gradientTransform="matrix(0,0.0537212,0.09669,0,-8.097375,-5.630625)">
<stop offset="0" style="stop-color:rgb(0%,0%,0%);stop-opacity:0.314;"/>
<stop offset="0.222" style="stop-color:rgb(0%,0%,0%);stop-opacity:0.275;"/>
<stop offset="1" style="stop-color:rgb(0%,0%,0%);stop-opacity:0;"/>
</radialGradient>
<radialGradient id="radial2" gradientUnits="userSpaceOnUse" cx="450.908997" cy="189.578995" fx="450.908997" fy="189.578995" r="21.167" gradientTransform="matrix(0,-0.0537212,0.09669,0,-8.097375,43.267124)">
<stop offset="0" style="stop-color:rgb(0%,0%,0%);stop-opacity:0.314;"/>
<stop offset="0.222" style="stop-color:rgb(0%,0%,0%);stop-opacity:0.275;"/>
<stop offset="1" style="stop-color:rgb(0%,0%,0%);stop-opacity:0;"/>
</radialGradient>
<radialGradient id="radial3" gradientUnits="userSpaceOnUse" cx="450.908997" cy="189.578995" fx="450.908997" fy="189.578995" r="21.167" gradientTransform="matrix(0,0.0537212,-0.09669,0,28.107749,-5.630625)">
<stop offset="0" style="stop-color:rgb(0%,0%,0%);stop-opacity:0.314;"/>
<stop offset="0.222" style="stop-color:rgb(0%,0%,0%);stop-opacity:0.275;"/>
<stop offset="1" style="stop-color:rgb(0%,0%,0%);stop-opacity:0;"/>
</radialGradient>
</defs>
<g id="surface1">
<path style="fill-rule:nonzero;fill:url(#linear0);stroke-width:3;stroke-linecap:square;stroke-linejoin:round;stroke:rgb(12.941177%,12.941177%,12.941177%);stroke-opacity:1;stroke-miterlimit:4;" d="M 248.727273 53.59637 C 245.363636 53.505461 242 55.050916 239.909091 58.050916 L 188.272727 131.869098 C 186 134.960007 185.727273 138.960007 187.363636 142.323643 C 188.909091 146.232734 192.727273 148.869098 197.090909 148.869098 L 266.545455 148.869098 L 226.636364 205.869098 C 223.272727 210.687279 224.545455 217.232734 229.272727 220.59637 C 234 223.960007 240.636364 222.869098 244 217.960007 L 294.545455 145.869098 C 296.545455 143.960007 297.727273 141.323643 297.727273 138.323643 C 297.727273 133.323643 294.272727 129.232734 289.727273 128.050916 C 288.363636 127.687279 287.090909 127.59637 285.909091 127.687279 L 217 127.687279 L 257.272727 70.232734 C 260.636364 65.505461 259.363636 58.869098 254.636364 55.505461 C 252.909091 54.232734 250.909091 53.59637 248.727273 53.59637 Z M 248.727273 53.59637 " transform="matrix(0.0429688,0,0,0.0429688,0,9.24)"/>
<path style=" stroke:none;fill-rule:nonzero;fill:url(#linear1);" d="M 15.007812 2.09375 C 13.078125 2.089844 11.316406 3.203125 10.488281 4.945312 C 8.691406 4.457031 6.816406 5.417969 6.148438 7.160156 C 5.6875 6.820312 5.125 6.644531 4.550781 6.644531 C 3.824219 6.636719 3.132812 6.929688 2.621094 7.4375 C 2.105469 7.949219 1.820312 8.648438 1.820312 9.371094 C 1.820312 10.152344 2.152344 10.898438 2.738281 11.417969 C 3.324219 11.933594 4.101562 12.175781 4.875 12.078125 C 4.921875 12.09375 4.957031 12.101562 5 12.101562 L 15.007812 12.101562 C 16.339844 12.101562 17.613281 11.574219 18.550781 10.640625 C 19.484375 9.699219 20.011719 8.421875 20.011719 7.09375 C 20.019531 5.769531 19.492188 4.496094 18.550781 3.554688 C 17.613281 2.617188 16.332031 2.089844 15.007812 2.09375 Z M 15.007812 2.09375 "/>
<path style=" stroke:none;fill-rule:nonzero;fill:rgb(100%,100%,100%);fill-opacity:0.392;" d="M 15.007812 2.09375 C 13.078125 2.089844 11.316406 3.203125 10.488281 4.945312 C 8.691406 4.457031 6.816406 5.417969 6.148438 7.160156 C 5.6875 6.820312 5.125 6.644531 4.550781 6.644531 C 3.824219 6.636719 3.132812 6.929688 2.621094 7.4375 C 2.105469 7.949219 1.820312 8.648438 1.820312 9.371094 L 1.820312 9.484375 C 1.878906 8.019531 3.082031 6.863281 4.550781 6.871094 C 5.125 6.871094 5.683594 7.050781 6.148438 7.386719 C 6.816406 5.644531 8.691406 4.6875 10.488281 5.171875 C 11.316406 3.425781 13.078125 2.316406 15.007812 2.320312 C 17.730469 2.316406 19.960938 4.492188 20.007812 7.214844 C 20.011719 7.175781 20.011719 7.136719 20.011719 7.09375 C 20.019531 5.769531 19.492188 4.496094 18.550781 3.554688 C 17.613281 2.617188 16.339844 2.089844 15.007812 2.09375 Z M 15.007812 2.09375 "/>
<path style=" stroke:none;fill-rule:nonzero;fill:rgb(0%,0%,0%);fill-opacity:0.235;" d="M 20.007812 6.992188 C 19.960938 9.714844 17.730469 11.898438 15.007812 11.890625 L 5 11.890625 C 4.957031 11.890625 4.921875 11.886719 4.875 11.875 C 4.769531 11.886719 4.65625 11.890625 4.550781 11.890625 C 3.082031 11.898438 1.875 10.738281 1.820312 9.269531 L 1.820312 9.371094 C 1.820312 10.152344 2.152344 10.898438 2.738281 11.417969 C 3.324219 11.933594 4.101562 12.175781 4.875 12.078125 C 4.914062 12.09375 4.957031 12.101562 5 12.101562 L 15.007812 12.101562 C 16.332031 12.101562 17.613281 11.574219 18.546875 10.640625 C 19.484375 9.699219 20.011719 8.421875 20.011719 7.09375 C 20.011719 7.0625 20.011719 7.03125 20.007812 6.992188 Z M 20.007812 6.992188 "/>
<path style="fill:none;stroke-width:0.09375;stroke-linecap:round;stroke-linejoin:miter;stroke:rgb(12.941177%,12.941177%,12.941177%);stroke-opacity:1;stroke-miterlimit:4;" d="M 10.914773 1.522727 C 9.511364 1.519886 8.230114 2.329545 7.627841 3.596591 C 6.321023 3.241477 4.957386 3.940341 4.471591 5.207386 C 4.136364 4.960227 3.727273 4.832386 3.309659 4.832386 C 2.78125 4.826705 2.278409 5.039773 1.90625 5.409091 C 1.53125 5.78125 1.323864 6.289773 1.323864 6.815341 C 1.323864 7.383523 1.565341 7.926136 1.991477 8.303977 C 2.417614 8.678977 2.982955 8.855114 3.545455 8.784091 C 3.579545 8.795455 3.605114 8.801136 3.636364 8.801136 L 10.914773 8.801136 C 11.883523 8.801136 12.809659 8.417614 13.491477 7.738636 C 14.170455 7.053977 14.553977 6.125 14.553977 5.159091 C 14.559659 4.196023 14.176136 3.269886 13.491477 2.585227 C 12.809659 1.903409 11.877841 1.519886 10.914773 1.522727 Z M 10.914773 1.522727 " transform="matrix(1.375,0,0,1.375,0,0)"/>
<path style=" stroke:none;fill-rule:nonzero;fill:url(#radial0);" d="M 10.007812 18.820312 L 11.828125 18.820312 L 11.828125 17.90625 L 10.007812 17.90625 Z M 10.007812 18.820312 "/>
<path style=" stroke:none;fill-rule:nonzero;fill:url(#radial1);" d="M 10.007812 18.820312 L 8.1875 18.820312 L 8.1875 19.726562 L 10.007812 19.726562 Z M 10.007812 18.820312 "/>
<path style=" stroke:none;fill-rule:nonzero;fill:url(#radial2);" d="M 10.007812 18.820312 L 8.1875 18.820312 L 8.1875 17.90625 L 10.007812 17.90625 Z M 10.007812 18.820312 "/>
<path style=" stroke:none;fill-rule:nonzero;fill:url(#radial3);" d="M 10.007812 18.820312 L 11.828125 18.820312 L 11.828125 19.726562 L 10.007812 19.726562 Z M 10.007812 18.820312 "/>
</g>
</svg>

<svg xmlns="http://www.w3.org/2000/svg" width="22" height="22"><defs><linearGradient id="a" gradientUnits="userSpaceOnUse" x1="232.833" y1="222.917" x2="232.833" y2="48.292"><stop offset="0" stop-color="#ffca28"/><stop offset="1" stop-color="#ffd54f"/></linearGradient><linearGradient id="b" gradientUnits="userSpaceOnUse" x1="960" y1="1695.118" x2="960" y2="815.118" gradientTransform="matrix(.01137 0 0 .01137 0 -7.173)"><stop offset="0" stop-color="#78909c"/><stop offset="1" stop-color="#90a4ae"/></linearGradient><radialGradient id="c" gradientUnits="userSpaceOnUse" cx="450.909" cy="189.579" fx="450.909" fy="189.579" r="21.167" gradientTransform="matrix(0 -.05372 -.09669 0 28.108 43.267)"><stop offset="0" stop-opacity=".314"/><stop offset=".222" stop-opacity=".275"/><stop offset="1" stop-opacity="0"/></radialGradient><radialGradient id="d" gradientUnits="userSpaceOnUse" cx="450.909" cy="189.579" fx="450.909" fy="189.579" r="21.167" gradientTransform="matrix(0 .05372 .09669 0 -8.097 -5.63)"><stop offset="0" stop-opacity=".314"/><stop offset=".222" stop-opacity=".275"/><stop offset="1" stop-opacity="0"/></radialGradient><radialGradient id="e" gradientUnits="userSpaceOnUse" cx="450.909" cy="189.579" fx="450.909" fy="189.579" r="21.167" gradientTransform="matrix(0 -.05372 .09669 0 -8.097 43.267)"><stop offset="0" stop-opacity=".314"/><stop offset=".222" stop-opacity=".275"/><stop offset="1" stop-opacity="0"/></radialGradient><radialGradient id="f" gradientUnits="userSpaceOnUse" cx="450.909" cy="189.579" fx="450.909" fy="189.579" r="21.167" gradientTransform="matrix(0 .05372 -.09669 0 28.108 -5.63)"><stop offset="0" stop-opacity=".314"/><stop offset=".222" stop-opacity=".275"/><stop offset="1" stop-opacity="0"/></radialGradient></defs><path d="M248.704 53.61a10.383 10.383 0 0 0-8.818 4.455l-51.631 73.72c-2.273 3.182-2.454 7.272-.91 10.545 1.546 3.817 5.364 6.544 9.818 6.544h69.357l-39.905 56.995c-3.363 4.818-2.182 11.363 2.636 14.726a10.598 10.598 0 0 0 14.726-2.545l50.45-72.175c2-1.91 3.272-4.545 3.272-7.545 0-5-3.454-9.181-8-10.272-1.272-.363-2.635-.454-3.908-.363h-68.812l40.178-57.45c3.364-4.817 2.273-11.362-2.545-14.725-1.818-1.273-3.909-1.91-5.908-1.91zm0 0" transform="matrix(.04297 0 0 .04297 0 9.24)" fill="url(#a)" stroke-width="3" stroke-linecap="square" stroke-linejoin="round" stroke="#212121"/><path d="M15.008 2.094c-2 0-3.719 1.164-4.52 2.851a3.716 3.716 0 0 0-.937-.12A3.63 3.63 0 0 0 6.152 7.16a2.733 2.733 0 0 0-1.605-.515A2.72 2.72 0 0 0 1.82 9.37a2.722 2.722 0 0 0 3.059 2.711.44.44 0 0 0 .125.02h10.004a4.994 4.994 0 0 0 5.004-5.004 4.991 4.991 0 0 0-5.004-5.004zm0 0" fill="url(#b)"/><path d="M15.008 2.094c-2 0-3.719 1.164-4.52 2.851a3.716 3.716 0 0 0-.937-.12A3.63 3.63 0 0 0 6.152 7.16a2.733 2.733 0 0 0-1.605-.515A2.72 2.72 0 0 0 1.82 9.37v.113a2.725 2.725 0 0 1 2.727-2.613c.601 0 1.156.191 1.605.516A3.63 3.63 0 0 1 9.551 5.05c.324 0 .636.043.937.12a4.992 4.992 0 0 1 4.52-2.85 4.99 4.99 0 0 1 5 4.89c.004-.04.004-.074.004-.113a4.991 4.991 0 0 0-5.004-5.004zm0 0" fill="#fff" fill-opacity=".392"/><path d="M20.012 6.992a4.996 4.996 0 0 1-5.004 4.903H5.004a.338.338 0 0 1-.125-.024c-.11.016-.219.024-.332.024A2.724 2.724 0 0 1 1.82 9.27v.101a2.722 2.722 0 0 0 3.059 2.711.44.44 0 0 0 .125.02h10.004a4.994 4.994 0 0 0 5.004-5.004v-.106zm0 0" fill-opacity=".235"/><path d="M15.008 2.094c-2 0-3.719 1.164-4.52 2.851a3.716 3.716 0 0 0-.937-.12A3.63 3.63 0 0 0 6.152 7.16a2.733 2.733 0 0 0-1.605-.515A2.72 2.72 0 0 0 1.82 9.37a2.722 2.722 0 0 0 3.059 2.711.44.44 0 0 0 .125.02h10.004a4.994 4.994 0 0 0 5.004-5.004 4.991 4.991 0 0 0-5.004-5.004zm0 0" fill="none" stroke-width=".12891" stroke-linecap="round" stroke="#212121"/><path d="M10.004 18.82h1.82v-.91h-1.82zm0 0" fill="url(#c)"/><path d="M10.004 18.82H8.188v.907h1.816zm0 0" fill="url(#d)"/><path d="M10.004 18.82H8.188v-.91h1.816zm0 0" fill="url(#e)"/><path d="M10.004 18.82h1.82v.907h-1.82zm0 0" fill="url(#f)"/></svg>
